packages/hms_room_kit/lib/src/assets/icons/change_role.svg

<svg width="20" height="20" viewBox="0 0 20 20" fill="none" xmlns="http://www.w3.org/2000/svg">
<g id="Icon/Left">
<g id="Vector">
<path fill-rule="evenodd" clip-rule="evenodd" d="M8.01715 6.40629C8.54305 5.88039 9.25632 5.58494 10.0001 5.58494C10.7438 5.58494 11.4571 5.88039 11.983 6.40629C12.5089 6.93219 12.8043 7.64546 12.8043 8.38919C12.8043 9.13293 12.5089 9.8462 11.983 10.3721C11.4571 10.898 10.7438 11.1934 10.0001 11.1934C9.25632 11.1934 8.54305 10.898 8.01715 10.3721C7.49125 9.8462 7.1958 9.13293 7.1958 8.38919C7.1958 7.64546 7.49125 6.93219 8.01715 6.40629ZM10.0001 6.83494C9.58784 6.83494 9.19251 6.99869 8.90103 7.29017C8.60956 7.58165 8.4458 7.97698 8.4458 8.38919C8.4458 8.80141 8.60956 9.19674 8.90103 9.48821C9.19251 9.77969 9.58784 9.94344 10.0001 9.94344C10.4123 9.94344 10.8076 9.77969 11.0991 9.48821C11.3906 9.19674 11.5543 8.80141 11.5543 8.38919C11.5543 7.97698 11.3906 7.58165 11.0991 7.29017C10.8076 6.99869 10.4123 6.83494 10.0001 6.83494Z" fill="#EFF0FA"/>
<path fill-rule="evenodd" clip-rule="evenodd" d="M10.0001 13.1955C9.07364 13.1955 8.18517 13.5635 7.5301 14.2186C6.99551 14.7532 6.65207 15.4433 6.54384 16.1825L5.30702 16.0015C5.45398 14.9977 5.92028 14.0607 6.64622 13.3347C7.53571 12.4452 8.74212 11.9455 10.0001 11.9455C11.258 11.9455 12.4644 12.4452 13.3539 13.3347C14.0798 14.0607 14.5461 14.9977 14.6931 16.0015L13.4563 16.1825C13.348 15.4433 13.0046 14.7532 12.47 14.2186C11.8149 13.5635 10.9265 13.1955 10.0001 13.1955Z" fill="#EFF0FA"/>
<path fill-rule="evenodd" clip-rule="evenodd" d="M16.5897 4.521H3.41044C3.18032 4.521 2.99377 4.70754 2.99377 4.93766V15.0623C2.99377 15.2924 3.18032 15.4789 3.41044 15.4789H16.5897C16.8198 15.4789 17.0063 15.2924 17.0063 15.0623V4.93766C17.0063 4.70754 16.8198 4.521 16.5897 4.521ZM3.41044 3.271C2.48997 3.271 1.74377 4.01719 1.74377 4.93766V15.0623C1.74377 15.9827 2.48997 16.7289 3.41044 16.7289H16.5897C17.5101 16.7289 18.2563 15.9827 18.2563 15.0623V4.93766C18.2563 4.01719 17.5101 3.271 16.5897 3.271H3.41044Z" fill="#EFF0FA"/>
</g>
</g>
</svg>

<svg xmlns="http://www.w3.org/2000/svg" width="20" height="20" fill="none" viewBox="0 0 20 20"><g fill="#EFF0FA" fill-rule="evenodd" clip-rule="evenodd"><path d="M8.017 6.406a2.804 2.804 0 1 1 3.966 3.966 2.804 2.804 0 0 1-3.966-3.966ZM10 6.835a1.554 1.554 0 1 0 0 3.108 1.554 1.554 0 0 0 0-3.108Zm0 6.36a3.493 3.493 0 0 0-3.456 2.988l-1.237-.181a4.744 4.744 0 0 1 9.386 0l-1.237.18A3.494 3.494 0 0 0 10 13.197Z"/><path d="M16.59 4.521H3.41a.417.417 0 0 0-.416.417v10.124c0 .23.186.417.416.417h13.18c.23 0 .416-.187.416-.417V4.938a.417.417 0 0 0-.416-.417ZM3.41 3.271c-.92 0-1.666.746-1.666 1.667v10.124c0 .92.746 1.667 1.666 1.667h13.18c.92 0 1.666-.746 1.666-1.667V4.938c0-.92-.746-1.667-1.666-1.667H3.41Z"/></g></svg>
